X: 21941
T: Kitty Goes A-Milking
R: reel
M: 4/4
K: Gmajor
[Gd]2|:[Gd]G (3GGG [Gd]2 cA|dG (3GGG FGAc|dG (3GGG [Gd]2 {ga}ge|{g}fdcA {B}AGGB:|
dg~g2 ag{a}gf|dg{a}gf {^c}d2 Bc|dg~g2 af{a}ge|fdcA {F}G2 Bc|
dg~g2 ag{a}gf|dg{a}gf {^c}d2 Bc|defg abag|fdcA {F}G2 Bc||
dg~g2 bgaf|dg{a}gf {^c}d2 Bc|dg~g2 bg{b}af|dcAB {d}c2 Bc|
dg~g2 bgaf|dg{a}gf {^c}d2 Bc|defg abag|fdcA {F}G2 Ac||

